X:34
T:Chalkhill Hall. JJo8.034
B:J.Johnson Choice Collection Vol 8 1758
Z:vmp.Simon Wilson 2013 www.village-music-project.org.uk
M:C|
L:1/8
Q:1/2=100
K:G
|:G2Bdc2Ac|B2GB ABcd|ecBA dBAG|FGABA2D2:|
|:g2dBG2Bd|c2(ag) fedc|BGcA dBec|fdefg2G2:|
